X: 1490
T: Nihâvent Peşrev
C: Tanburî Büyük Osman Bey
O: Turkey
F: http://compmusic.upf.edu/node/140
N: nihavent--pesrev--devrikebir----tanburi_buyuk_osman_bey
N: makam= nihavent
N: form= pesrev
N: usul= devrikebir = 28/4
M: 28/4
L: 1/16
K: C _B _e  
Q: 1/4=72
%%MIDI tuningsystem comma53
c4 d8 (3c2B2c2  | B6f2 f_1/4efg f2_e2  | \
w:  1. HANE  |   | 
edef e2d2 dcde d2c2  | 
w:   | 
B2fe eddc cBBA B2c2  | B4 d2e2 d4 c2d2  | \
w:   |   | 
c2Bc B2AB A2GA G2^F2  | 
w:   | 
G2d4cB AG^FE D4  | D2G4^F2 GAGF G2A2  | \
w:   |   | 
B6A2 G4 ^F4  | 
w:   | 
z2B4A2 B3A B2c2  | dcde d2c2 cBBA AGG^F  | 
w:   |   | 
G4 d2e2 d4 c2d2  | c2Bc B2AB A2GA G2^F2  | \
w:   |   | 
G6D2 E2^F2 G4  | 
w:   | 
G8 d2e^f e2fg  | ^fed4d^c c8  | d2e2 d2e2 ^f2g2 f2e2  | 
w:   |   |   | 
d^cde ^f2g2 f2a2 g4  | g4 ^f2g2 a2b2 a2g2  | \
w:   |   | 
a2g2 ^f2e2 defg agfe  | 
w:   | 
d^cde ^fgab aggf g4  | g^fga g2f2 fefg f2e2  | 
w:   |  TESLİM  | 
ede^f e2d2 dedc cBBA  | B4 c2B2 cdeg f2e2  | 
w:   |   | 
d2ef edc2 B4 A4  | A4 G3A B2c2 d4  | \
w:   |   | 
c2B2 A2G2 AcBA AGG^F  | 
w:   | 
G6A2 B8  | B8 F8  | (3G2F2G2 (3A2G2A2 (3B2A2B2 d2cB  | \
w:  2. HANEYE  |  2. HANE  |   | 
B4 A2B2 A4 G4  | 
w:   | 
^F6ED DEFG AGFE  | D4 A2B2 A4 G4  | A2Bc B2A2 A2GA G2^F2  | 
w:   |   |   | 
G6^FG A8  | A2B2 A2G2 ^F8  | c3B A2G2 ^F2E2 D2^C2  | \
w:   |   |   | 
D4 D2E2 ^F4 G4  | 
w:   | 
A2GA B2AB c2Bc d4  | d4 d2e2 d4 c2d2  | \
w:   |   | 
c2Bc B2AB A2GA G2^F2  | 
w:   | 
G6A_1/4B c8  | c2_d4c2 c3B A2B2  | c2de d2c2 BcBA G4  | 
w:   |   |   | 
d2e4d2 d3c B2c2  | dcde d2c2 BcBA A4  | \
w:   |   | 
A4 a2b2 a4 g4  | 
w:   | 
^f6ed defg agfe  | d^cde ^fgab aggf g4  | 
w:   |   | 
g^fga g2f2 fefg f2e2  | ede^f e2d2 dedc cBBA  | 
w:  TESLİM  |   | 
B4 c2B2 cdeg f2e2  | d2ef edc2 B4 A4  | \
w:   |   | 
A4 G3A B2c2 d4  | 
w:   | 
c2B2 A2G2 AcBA AGG^F  | G6d2 e2^f2 g4  | \
w:   |  3. HANEYE  | 
gag^f g2a2 g4 f4  | 
w:  3. HANE  | 
g4 a4 b8  | babc' b2a2 a2ga g2^f2  | \
w:   |   | 
g6d'2 ^c'2e'2 d'4  | d'4 d'2e'2 d'4 c'2d'2  | 
w:   |   | 
c'2bc' b2ab a2ga g2^f2  | g6d2 e2^f2 g4  | \
w:   |   | 
g2_a2 g2f2 f6e2  | 
w:   | 
e6f2 g6_a2  | b6_a2 g6f2  | f2b_a aggf feed dcc_1/4B  | 
w:   |   |   | 
c4 BcBA B2c2 d4  | c2Bc B2AB A2GA G2^F2  | \
w:   |   | 
Gg2f e2d2 c2B2 AG^FG  | 
w:   | 
A6B2 ABAG ^F2G2  | A6c2 B3A G4  | d6c2 B2c2 d2e2  | \
w:   |   |   | 
d2e2 ^f2g2 f2a2 g4  | 
w:   | 
g4 ^f2g2 a2b2 a2g2  | a2g2 ^f2e2 defg agfe  | \
w:   |   | 
d^cde ^fgab aggf g4  | 
w:   | 
g^fga g2f2 fefg f2e2  | ede^f e2d2 dedc cBBA  | 
w:  TESLİM  |   | 
B4 c2B2 cdeg f2e2  | d2ef edc2 B4 A4  | \
w:   |   | 
A4 G3A B2c2 d4  | 
w:   | 
c2B2 A2G2 AcBA AGG^F  | G6^fe d^cBc d4  | \
w:   |  4. HANEYE  | 
^c4 d8 ^f4  | 
w:  4. HANE  | 
d2e^f e2d2 d3^c B4  | B4 A2B2 ^c2d2 B2c2  | \
w:   |   | 
d2^fe edd^c cBBA A4  | 
w:   | 
A4 A2B2 ^c4 d4  | ^c2B2 A2G2 AcBA AGG^F  | \
w:   |   | 
Gg2f e2d2 c2B2 AG^FG  | 
w:   | 
A6B2 ABAG ^F2G2  | A6c2 B3A G2A_1/4B  | \
w:   |   | 
c8 cdcB A2B2  | 
w:   | 
c3e d2c2 dcBA G2A2  | ^F4 D2E2 D4 ABAG  | \
w:   |   | 
A2^F4D2 E2F2 G2FE  | 
w:   | 
D2d4cB AG^FE D4  | D8 E4 ^F4  | G8 ABAG ^F2G2  | \
w:   |   |   | 
A8 B4 ^c4  | 
w:   | 
d6g2 ^f2a2 g4  | g4 ^f2g2 a2b2 a2g2  | \
w:   |   | 
a2g2 ^f2e2 defg agfe  | 
w:   | 
d^cde ^fgab aggf g4  | g^fga g2f2 fefg f2e2  | 
w:   |  TESLİM  | 
ede^f e2d2 dedc cBBA  | B4 c2B2 cdeg f2e2  | 
w:   |   | 
d2ef edc2 B4 A4  | A4 G3A B2c2 d4  | \
w:   |   | 
c2B2 A2G2 AcBA AGG^F  | 
w:   | 
G8 z8  | |


